X: 30949
T: Owen Huw's
R: hornpipe
M: 4/4
K: Dmajor
zB|Adfd A2A2|Bdgd B2B2|Adfd A2A2|cded cBA2|
Adfd A2A2|Bdgd B2B2|Acea gfeg|f2d2 d2:|
ze|fdBd f2f2|ecAc e2e2|fdBd f2f2|fedc B2:|
zB|Adfd A2A2|Bdgd B2B2|Adfd A2A2|cded cBA2|
Adfd A2A2|Bdgd B2B2|Acea gfeg|f2d2 d2||
d2|g2g2 gfed|=c2c2 c2e2|a2a2 agfe|d2d2 d2ef|
g2g2 gfed|=c2c2 c2A2|BdBG AGFA|G2B2 G2:|

